X:79
T:Ally Croaker
M:2/4
L:1/8
B:Thompson's Compleat Collection of 200 Favourite Country Dances, vol. 1 (London, 1757)
Z:Transcribed and edited by Fynnian Titford-Mock, 2007
Z:abc's:AK/Fiddler's Companion
K:G
D|G2 G>G|GGGG|AGFG|ABcd|BGGG|GGGG|A>GFG|A>Bcc|
{Bc}d2 dd|dddd|edcB|A>Bcc|{AB}c2 cc|cccc|dcBA|G>ABB|
GGGG|FFFG/F/|EEEF/E/|DD D2|c>ccd|{d}c2 BA|BGcA|"tr"F2G2||

